X: 297
T:Carleton County Breakdown
C: Earl Mitton
M:2/4
R:reel
L:1/16
Z:Alf Warnock - alf0@rogers.com
K:A
ED|"A"CA,CE cABc |"D"dAFB AFED|"A"CEAc ecAc |"E7"dcBA B2ED|
"A"CA,CE cABc |"D"dAFB AFED|"A"CEAc "E7"BAGB |"A"AcBc A2:|
cd|\
"A"eAcd eagf |"E7"egBe g2ef|"Bm"gfeg "E7"fecd |"A"eAce a2cd|
"A"eAcd eagf |"E7"egBe g2ef|"Bm"gfeg "E7"feaf| "A"ecBc A2:|
